svg/u1f369.svg

<svg viewBox="0 0 128 128" xmlns="http://www.w3.org/2000/svg">
  <path d="M97.23,57l-33.3,6.86L6.35,62.48c0,0-3.13,16.65,8.42,31.93c9.41,12.44,26.6,17.69,52.72,17.27 c26.91-0.43,43.83-10.56,50.56-24.36c8.03-16.45-0.26-36.4-0.26-36.4L97.23,57z" fill="#F5B03E"/>
  <path d="M41.53,43.69l2.1,18.42l6.8-3.09c0,0,1.98-4.47,13.85-4.7c12.73-0.25,14.96,4.08,14.96,4.08 s16.07-9.64,15.33-10.51c-0.74-0.87-23.61-11.74-23.61-11.74S41.78,43.31,41.53,43.69z" fill="#DF8013"/>
  <path d="M115.09,38.25c-7.24-8.78-20.77-20.52-53.9-20.52c-21.64,0-34.12,7.67-43.27,16.07 C8.77,42.2,0.9,58.55,4.57,66.06c2.47,5.07,4.82,4.08,7.05,8.28s4.08,9.4,9.64,12.73s11.99,3.83,16.07,5.44 c4.08,1.61,11.62,6.55,23,6.8c11.5,0.25,17.68-4.08,24.11-5.69c6.43-1.61,15.08-1.85,21.76-5.32c6.68-3.46,7.17-9.4,10.63-13.23 c3.46-3.83,6.31-5.81,7.05-9.4S122.63,47.39,115.09,38.25z M63.29,60.01c-9.4,0.12-17.01-2.05-16.81-7.54 c0.25-7.18,13.47-8.44,17.68-8.53c5.56-0.12,17.64,0.95,17.99,7.46C82.48,57.77,72.69,59.88,63.29,60.01z" fill="#875B4F"/>
  <path d="M57.92,22.3c1.76,1.51,3.78,0.21,5.14-1.57s1.28-4,0.14-4.85c-1.14-0.86-3-0.57-4.78,1.5 C57.3,18.68,56.42,21.02,57.92,22.3z" fill="#FEA8A6"/>
  <path d="M69.41,34.15c1.39,1.67,4.64,0,7.35-2s4.95-3.88,3.5-6.14c-1.78-2.78-6.35,1-7.71,1.93 C71.19,28.87,67.27,31.58,69.41,34.15z" fill="#93C9EF"/>
  <path d="M83.76,31.08c0.49,2.37,3.28,2.28,6.71,1.36c3.43-0.93,5.59-1.7,4.98-4.24 c-0.67-2.78-4.98-1.33-6.98-0.9C86.47,27.73,83.22,28.47,83.76,31.08z" fill="#FDBA02"/>
  <path d="M96.47,36.82c-1.03,1.37-0.87,3.11,2.2,5.18c3.07,2.07,4.72,2.13,5.78,0.57 c1.21-1.78-0.64-3.46-2.5-4.89C100.1,36.25,97.53,35.41,96.47,36.82z" fill="#FEA8A6"/>
  <path d="M89.75,45.21c-1.07,1.85,1,3.55,4,5.5c2.86,1.86,5.17,3.7,6.64,1.07c1.36-2.43-2.21-4.35-4.07-5.42 C94.46,45.29,91.32,42.5,89.75,45.21z" fill="#FD5E5B"/>
  <path d="M110.72,54.72c-2.05-1.55-4.53,0.85-6.62,3.7s-4.78,6.13-2.69,7.77c2.4,1.88,4.74-0.91,6.99-3.84 C110.63,59.43,112.6,56.14,110.72,54.72z" fill="#F47BA8"/>
  <path d="M110.17,68.55c1.25,1.88,3.79,0.62,6.28-0.93c2.49-1.55,4.2-3.7,3.07-5.71s-4.26,0.2-5.92,1.28 C111.93,64.29,108.88,66.62,110.17,68.55z" fill="#FFB502"/>
  <path d="M29.51,48.01c-3.9,3.51-5.04,5.72-3.46,7.41s4.37-0.04,8.17-3.58s4.75-5.58,3.2-7.23 C35.6,42.7,32.1,45.68,29.51,48.01z" fill="#F47BA8"/>
  <path d="M44.89,25.95c-1.69,0.77-1.64,3.04,0.69,5.99c2.3,2.92,3.3,4.92,5.46,3.61 c2.15-1.31,0.23-4.69-1.31-6.61C48.19,27.02,46.58,25.18,44.89,25.95z" fill="#F47BA8"/>
  <path d="M18.23,47.46c-1.76-1.38-3.46,0.08-6.07,2.92s-3.11,4.88-1.38,6.38c1.77,1.54,4.21-1.71,5.46-3.15 C17.77,51.84,20.38,49.15,18.23,47.46z" fill="#FEA8A6"/>
  <path d="M24.38,65.82c-0.76,2.61,1.77,3.15,4.46,3.76s6.15,1.23,6.61-1.08c0.46-2.3-1.77-3.3-4.84-3.76 S25.07,63.44,24.38,65.82z" fill="#FEA8A6"/>
  <path d="M20.61,37.01c-2.22,1.24-0.77,4.3-0.08,6.07c0.69,1.77,1.92,4.15,4,2.92s0.71-4.16,0.08-5.69 C23.84,38.47,22.69,35.86,20.61,37.01z" fill="#93C9EF"/>
  <path d="M43.72,71.92c-2.27,1.13-0.57,4.37,1.21,7.45c1.78,3.08,2.35,4.86,4.7,3.72 c2.35-1.13,0.4-4.61-0.81-6.96C47.6,73.78,45.98,70.79,43.72,71.92z" fill="#93C9EF"/>
  <path d="M74.16,65.13c-2.56,1.94-5.84,3.92-4.3,6.45c1.54,2.54,5.53-0.54,7.38-1.84 c1.84-1.31,5.76-3.76,4.3-6.07C80.08,61.37,76.39,63.44,74.16,65.13z" fill="#FD5E5B"/>
  <path d="M82.23,76.5c0,2.84,2.23,2.54,5.61,2.84c3.38,0.31,6.39,0.39,6.3-2.38 c-0.08-2.46-2.92-2.54-5.84-2.61C85.83,74.29,82.23,73.64,82.23,76.5z" fill="#FEA8A6"/>
  <path d="M68.86,79.42c-4.26-0.66-6.84-1.08-7.45,1.15c-0.61,2.23,1.23,3.3,5.76,4.07s6.76,0.77,7.22-1.54 C74.85,80.81,71.86,79.88,68.86,79.42z" fill="#FFB502"/>
  <path d="M92.7,86.98c0.15,2.49,3.58,2.61,7.83,1.09s6.43-3.68,4.98-5.58c-1.76-2.31-6.19,1.21-7.53,1.58 C96.64,84.43,92.52,84.01,92.7,86.98z" fill="#B79279"/>
  <path d="M59.44,91.53c3.7,0.25,9.53-1.46,9.83,1.64s-5.52,4.01-12.02,3.34c-6.46-0.66-10.38-2-10.02-5.28 C47.6,87.95,52.21,91.05,59.44,91.53z" fill="#B79279"/>
  <path d="M9.85,65.25c-0.75,1.35,0.06,2.61,1.27,3.46s2.67,2.12,4.25,4.61c1.58,2.49,2.74,6.48,6.19,9.65 c3.64,3.34,7.16,3.28,9.23,3.95s5.26,1.8,7.04,1.76c2.79-0.06,2.31-2.55,1.09-3.7s-4.55-2.25-7.59-3.34 c-2.02-0.73-4.22-1.7-7.89-6.43c-2.73-3.52-4.25-5.46-7.28-7.77C14.14,65.9,10.82,63.49,9.85,65.25z" fill="#B79279"/>
</svg>

<svg viewBox="0 0 128 128" xmlns="http://www.w3.org/2000/svg">
  <defs/>
  <path d="M97.23,57 L63.93,63.86 L6.35,62.48 C6.35,62.48 3.22,79.13 14.77,94.41 C24.18,106.85 41.37,112.1 67.49,111.68 C94.4,111.25 111.32,101.12 118.05,87.32 C126.08,70.87 117.79,50.92 117.79,50.92 L97.23,57 Z" fill="#F5B03E"/>
  <path d="M41.53,43.69 L43.63,62.11 L50.43,59.02 C50.43,59.02 52.41,54.55 64.28,54.32 C77.01,54.07 79.24,58.4 79.24,58.4 C79.24,58.4 95.31,48.76 94.57,47.89 C93.83,47.02 70.96,36.15 70.96,36.15 C70.96,36.15 41.78,43.31 41.53,43.69 Z" fill="#DF8013"/>
  <path d="M115.09,38.25 C107.85,29.47 94.32,17.73 61.19,17.73 C39.55,17.73 27.07,25.4 17.92,33.8 C8.77,42.2 0.9,58.55 4.57,66.06 C7.04,71.13 9.39,70.14 11.62,74.34 C13.85,78.54 15.7,83.74 21.26,87.07 C26.82,90.4 33.25,90.9 37.33,92.51 C41.41,94.12 48.95,99.06 60.33,99.31 C71.83,99.56 78.01,95.23 84.44,93.62 C90.87,92.01 99.52,91.77 106.2,88.3 C112.88,84.84 113.37,78.9 116.83,75.07 C120.29,71.24 123.14,69.26 123.88,65.67 C124.62,62.08 122.63,47.39 115.09,38.25 Z M63.29,60.01 C53.89,60.13 46.28,57.96 46.48,52.47 C46.73,45.29 59.95,44.03 64.16,43.94 C69.72,43.82 81.8,44.89 82.15,51.4 C82.48,57.77 72.69,59.88 63.29,60.01 Z" fill="#875B4F"/>
  <path d="M57.92,22.3 C59.68,23.81 61.7,22.51 63.06,20.73 C64.42,18.95 64.34,16.73 63.2,15.88 C62.06,15.02 60.2,15.31 58.42,17.38 C57.3,18.68 56.42,21.02 57.92,22.3 Z" fill="#FEA8A6"/>
  <path d="M69.41,34.15 C70.8,35.82 74.05,34.15 76.76,32.15 C79.47,30.15 81.71,28.27 80.26,26.01 C78.48,23.23 73.91,27.01 72.55,27.94 C71.19,28.87 67.27,31.58 69.41,34.15 Z" fill="#93C9EF"/>
  <path d="M83.76,31.08 C84.25,33.45 87.04,33.36 90.47,32.44 C93.9,31.51 96.06,30.74 95.45,28.2 C94.78,25.42 90.47,26.87 88.47,27.3 C86.47,27.73 83.22,28.47 83.76,31.08 Z" fill="#FDBA02"/>
  <path d="M96.47,36.82 C95.44,38.19 95.6,39.93 98.67,42 C101.74,44.07 103.39,44.13 104.45,42.57 C105.66,40.79 103.81,39.11 101.95,37.68 C100.1,36.25 97.53,35.41 96.47,36.82 Z" fill="#FEA8A6"/>
  <path d="M89.75,45.21 C88.68,47.06 90.75,48.76 93.75,50.71 C96.61,52.57 98.92,54.41 100.39,51.78 C101.75,49.35 98.18,47.43 96.32,46.36 C94.46,45.29 91.32,42.5 89.75,45.21 Z" fill="#FD5E5B"/>
  <path d="M110.72,54.72 C108.67,53.17 106.19,55.57 104.1,58.42 C102.01,61.27 99.32,64.55 101.41,66.19 C103.81,68.07 106.15,65.28 108.4,62.35 C110.63,59.43 112.6,56.14 110.72,54.72 Z" fill="#F47BA8"/>
  <path d="M110.17,68.55 C111.42,70.43 113.96,69.17 116.45,67.62 C118.94,66.07 120.65,63.92 119.52,61.91 C118.39,59.9 115.26,62.11 113.6,63.19 C111.93,64.29 108.88,66.62 110.17,68.55 Z" fill="#FFB502"/>
  <path d="M29.51,48.01 C25.61,51.52 24.47,53.73 26.05,55.42 C27.63,57.11 30.42,55.38 34.22,51.84 C38.02,48.3 38.97,46.26 37.42,44.61 C35.6,42.7 32.1,45.68 29.51,48.01 Z" fill="#F47BA8"/>
  <path d="M44.89,25.95 C43.2,26.72 43.25,28.99 45.58,31.94 C47.88,34.86 48.88,36.86 51.04,35.55 C53.19,34.24 51.27,30.86 49.73,28.94 C48.19,27.02 46.58,25.18 44.89,25.95 Z" fill="#F47BA8"/>
  <path d="M18.23,47.46 C16.47,46.08 14.77,47.54 12.16,50.38 C9.55,53.22 9.05,55.26 10.78,56.76 C12.55,58.3 14.99,55.05 16.24,53.61 C17.77,51.84 20.38,49.15 18.23,47.46 Z" fill="#FEA8A6"/>
  <path d="M24.38,65.82 C23.62,68.43 26.15,68.97 28.84,69.58 C31.53,70.19 34.99,70.81 35.45,68.5 C35.91,66.2 33.68,65.2 30.61,64.74 C27.54,64.28 25.07,63.44 24.38,65.82 Z" fill="#FEA8A6"/>
  <path d="M20.61,37.01 C18.39,38.25 19.84,41.31 20.53,43.08 C21.22,44.85 22.45,47.23 24.53,46 C26.61,44.77 25.24,41.84 24.61,40.31 C23.84,38.47 22.69,35.86 20.61,37.01 Z" fill="#93C9EF"/>
  <path d="M43.72,71.92 C41.45,73.05 43.15,76.29 44.93,79.37 C46.71,82.45 47.28,84.23 49.63,83.09 C51.98,81.96 50.03,78.48 48.82,76.13 C47.6,73.78 45.98,70.79 43.72,71.92 Z" fill="#93C9EF"/>
  <path d="M74.16,65.13 C71.6,67.07 68.32,69.05 69.86,71.58 C71.4,74.12 75.39,71.04 77.24,69.74 C79.08,68.43 83,65.98 81.54,63.67 C80.08,61.37 76.39,63.44 74.16,65.13 Z" fill="#FD5E5B"/>
  <path d="M82.23,76.5 C82.23,79.34 84.46,79.04 87.84,79.34 C91.22,79.65 94.23,79.73 94.14,76.96 C94.06,74.5 91.22,74.42 88.3,74.35 C85.83,74.29 82.23,73.64 82.23,76.5 Z" fill="#FEA8A6"/>
  <path d="M68.86,79.42 C64.6,78.76 62.02,78.34 61.41,80.57 C60.8,82.8 62.64,83.87 67.17,84.64 C71.7,85.41 73.93,85.41 74.39,83.1 C74.85,80.81 71.86,79.88 68.86,79.42 Z" fill="#FFB502"/>
  <path d="M92.7,86.98 C92.85,89.47 96.28,89.59 100.53,88.07 C104.78,86.55 106.96,84.39 105.51,82.49 C103.75,80.18 99.32,83.7 97.98,84.07 C96.64,84.43 92.52,84.01 92.7,86.98 Z" fill="#B79279"/>
  <path d="M59.44,91.53 C63.14,91.78 68.97,90.07 69.27,93.17 C69.57,96.27 63.75,97.18 57.25,96.51 C50.79,95.85 46.87,94.51 47.23,91.23 C47.6,87.95 52.21,91.05 59.44,91.53 Z" fill="#B79279"/>
  <path d="M9.85,65.25 C9.1,66.6 9.91,67.86 11.12,68.71 C12.33,69.56 13.79,70.83 15.37,73.32 C16.95,75.81 18.11,79.8 21.56,82.97 C25.2,86.31 28.72,86.25 30.79,86.92 C32.86,87.59 36.05,88.72 37.83,88.68 C40.62,88.62 40.14,86.13 38.92,84.98 C37.7,83.83 34.37,82.73 31.33,81.64 C29.31,80.91 27.11,79.94 23.44,75.21 C20.71,71.69 19.19,69.75 16.16,67.44 C14.14,65.9 10.82,63.49 9.85,65.25 Z" fill="#B79279"/>
</svg>
